!!!COM:	Bach, Johann Sebastian
!!!CDT:	1685/02/21/-1750/07/28/
!!!OTL@@DE:	Jesus, meine Zuversicht
!!!SCT:	BWV 365
!!!PC#:	175
!!!AGN:	chorale
**kern	**kern	**kern	**kern
*ICvox	*ICvox	*ICvox	*ICvox
*Ibass	*Itenor	*Ialto	*Isoprn
*I"Bass	*I"Tenor	*I"Alto	*I"Soprano
*>[A,A,B]	*>[A,A,B]	*>[A,A,B]	*>[A,A,B]
*>norep[A,B]	*>norep[A,B]	*>norep[A,B]	*>norep[A,B]
*>A	*>A	*>A	*>A
*clefF4	*clefGv2	*clefG2	*clefG2
*k[]	*k[]	*k[]	*k[]
*C:	*C:	*C:	*C:
*M4/4	*M4/4	*M4/4	*M4/4
*met(c)	*met(c)	*met(c)	*met(c)
*MM100	*MM100	*MM100	*MM100
=1-	=1-	=1-	=1-
4C	4c	4e	4g
8CL	4G	8cL	4e
8BBJ	.	8dJ	.
4AA	4c	4e	4a
4GG#	4B	4e	4b
=2	=2	=2	=2
8AAL	4A	4e	4cc
8BBJ	.	.	.
8CL	4e	[4a	4cc
8DJ	.	.	.
2E;	2e;	4a]	2b;
.	.	4g#;	.
=3	=3	=3	=3
4F	[4c	4a	8aL
.	.	.	8bJ
4E	8cL]	8gnXL	4cc
.	[8GJ	8eJ	.
8BBL	8GL]	[4d	4g
8GGJ	8BJ	.	.
4C	8GL	8dL]	4e
.	8EJ	8GJ	.
=4	=4	=4	=4
8AAL	8AL	8cL	4f
8BBJ	8GJ	[8dJ	.
4C	4G	8dL]	4e
.	.	8cJ	.
4FF	4A	4c	2d
4GG	8GL	4B	.
.	8FJ	.	.
=5	=5	=5	=5
1CC;	1E;	1G;	1c;
=6:|!	=6:|!	=6:|!	=6:|!
*>B	*>B	*>B	*>B
8CL	4G	4c	4e
8CCJ	.	.	.
4C	4A	[4d	4f#
4BB	8BL	8dL]	4g#
.	8dJ	8fJ	.
8CL	8cL	8eL	4a
8FnXJ	8AJ	8cJ	.
=7	=7	=7	=7
8DL	4.A	8fL	4b
8BBJ	.	8dJ	.
4E	.	8BL	4b
.	8G#	16eL	.
.	.	16dJJ	.
2AA;	2A;	2c;	2a;
=8	=8	=8	=8
8GnXL	4d	4gnX	4b
8F	.	.	.
8E	4e	4g	4cc
8DJ	.	.	.
8CL	4d	4g	4dd
8BB	.	.	.
8C	4c	4g	4ee
8DJ	.	.	.
=9	=9	=9	=9
8FL	4c	8aL	4.dd
8DJ	.	8fJ	.
4G	4B	8dL	.
.	.	16gL	8cc
.	.	16fJJ	.
2C;	2G;	2e;	2cc;
==	==	==	==
*-	*-	*-	*-
!!!hum2abc: -Q ''
!!!title: @{PC#}. @{OTL@@DE}
!!!YOR1: 371 vierstimmige Choralges&auml;nge von Johann Sebastian Bach, 
!!!YOR2: 4th ed. by Alfred D&ouml;rffel (Leipzig: Breitkopf und H&auml;rtel, 
!!!YOR2: c.1875). 178 pp. Plate "V.A.10".  reprint: J.S. Bach, 371 Four-Part 
!!!YOR4: Chorales (New York: Associated Music Publishers, Inc., c.1940).
!!!SMS: B&H, 4th ed, Alfred D&ouml;rffel, c.1875, plate V.A.10
!!!EED:  Craig Stuart Sapp
!!!EEV:  2009/05/22
